X: 10706
T: Downfall Of Paris, The
R: hornpipe
M: 4/4
K: Gmajor
|:D2|G2 GA G2 GA|G2 AB cBAG|A2 AB A2 AB|A2 AB cBAG|
B2 BA B2 BA|Bdgf edcB|A2 AB A2 AB|ABcA GFEF|
G2 GA G2 GA|G2 AB cBAG|A2 AB A2 AB|A2 AB cBAG|
BABc dedc|BABc d3c|BBGB AAFA|G2 GF G2:|
|:Bc|d2 dB d2 dB|e2 d2 c2 B2|c2 cA c2 cA|cdBc ABGA|
B2 BA B2 BA|Bdgf edcB|A2 AB A2 AB|ABcA GFED|
G2 B2 G2 GA|G2 AB cBAG|A2 AB A2 AB|A2 AB cBAG|
BABc dedc|BABc d3c|BBGB AAFA|G2 GF G2:|
|:Bc|d2 ef gfed|Bdge dcBA|G2 G2 A2 A2|BBDB A2 Bc|
d2 ef gfed|Bdge dcBA|G2 (3ABc BGAF|G2 GA G2:|
|:AG|F2 FG A2 AB|c2 B2 A2 G2|F2 FG A2 AB|c2 B2 A2 Bc|
d2 ef gfed|Bdge dcBA|G2 A/B/c BGAF|G2 GF G2:|
|:D2|G2 G2 A2 A2|d3B G2 BG|E2 c4 AF|G4 G4||

